X: 115
T:Martyrs. JMP.115
M:2/2
L:1/2
S:John Miller MS. Perth, 1799.(for the fife)
R:sacred
O:Scotland
A:Perth
N:Photocopy very dark at beginin
H:1799
Z:vmp.C. Graebe
K:A minor
B2 | GE | BG | FE | B2 ||\
B2 | dB | ce | B2 ||\
B2 | dA | BG | FE | B2 ||\
d2 | cA | cB | A2 |]
